!!!SOCIAL_FUNCTION:	bird dance songs
!!!PDT:	1956
!!!OTL: No_84_Bird_Dance_Song_(g).krn
!!!LANG: Non-Tone
!!!LING_GROUP: Muskogean
!!!REG: Florida
**kern
*staff1
=1-
*clefF4
*k[b-e-a-]
*M2/4
16B-\LK
8.B-\J
16B-\LK
8.B-\J
=2!|:
4B-\
4G\
=3
16B-\LK
8.B-\J
16G\LK
8.G\J
=4
4E-\
8E-\
8r
=5
16B-\LK
8.B-\J
16G\LK
8.G\J
=6
(8B-\L
8G\J)
4G\
=7||
*M3/4
8G\L
8E-\J
8E-/L
8C/J
4BB-/
=8||
*M2/4
8E-\L
8E-\J
(8E-/L
8BB-/J)
=9
2E-\
=10
16G\LK
8.E-\J
16E-\LK
8.E-\J
=11
4G\
4G\
=12||
*M3/4
8G\L
8E-\J
8E-/L
8C/J
8BB-/
8r
=13||
*M2/4
8E-\L
8E-\J
(8E-/L
8BB-/J)
=14
2E-\
=15
8.r
16E-\
12B-\L
12B-\
12B-\J
==:|!
*-
